prototype/04-socket-without-vite/public/assets/img/dance_anxiety.svg

<svg fill="none" viewBox="0 0 188 131" xmlns="http://www.w3.org/2000/svg">
<path d="m187 57.692-17.053-56.692-24.886 0.55699 12.055 21.137-13.688 11.812-8.285-7.7906 9.257-15.979-41.602 17.507 7.407 16.598 3.685 8.2573m-3.685-8.2573 9.626 1.9597-5.941 6.2976m-3.685-8.2573-22.4-4.5604-8.3564 33.524-16.52-15.534m50.96-5.1723 1.894 4.2448m-1.894-4.2448-34.344 36.406-14.033 25.282 58.443 0.87 10.955-9.301-38.506-16.607 19.38-32.405 4.878 10.93 19.296 0.3578-19.235 20.39 42.073-1.8185 4.478-17.466m-51.49-12.394 10.217-17.083 36.606 34.423 4.667-4.9464 2.551-9.9508m-2.551 9.9508 6.403-6.7876-3.852-3.1632m0 0 1.52-5.9269 2.365-21.008-24.412 10.077 20.527 16.858zm-106.9-1.5161-6.9858-6.5691 8.4075-12.842m-1.4217 19.412 12.111-19.104-10.689-0.3077m-1.4217 19.412-1.2976 2.0468-43.35-9.5463-4.8966 6.6544m50.966-18.566 22.923-35.015-23.492 3.3194-1.9871 8.6585-14.215-5.744-7.353 11.928m24.124 16.853-18.192-0.5237m-5.9315-16.33-9.7876 15.877 15.719 0.4524m-5.9315-16.33 10.68 5.3577-4.7484 10.972m-5.9315-16.33-17.454-8.7561m23.386 25.086-2.956 6.8304-32.435-1.4606 2.6174 13.72-10.575 14.371 14.253 4.9075m-3.6776-19.278 3.6776 19.278 25.49 8.7767m-25.49-8.7767 4.5908 24.065-19.029-16.442-1.6242 8.2737 30.892 37.398 17.743-1.465-21.964-20.654 14.882-22.399m0 0 4.7167 1.624-11.513 15.673 15.371 6.831 19.054-20.198-16.534-20.63-11.095 16.699z" opacity=".5" stroke="#8C55B2"/>
</svg>

<svg width="188" height="131" viewBox="0 0 188 131" fill="none" xmlns="http://www.w3.org/2000/svg">
<path opacity="0.5" d="M187 57.6925L169.947 1L145.061 1.55699L157.116 22.6942L143.428 34.5065L135.143 26.7159L144.4 10.7366L102.798 28.2437L110.205 44.8422M110.205 44.8422L113.89 53.0995M110.205 44.8422L119.831 46.8019L113.89 53.0995M110.205 44.8422L87.8055 40.2818L79.4491 73.8062L62.9295 58.2718M113.89 53.0995L115.784 57.3443M113.89 53.0995L79.5455 89.5059L65.5122 114.788L123.955 115.658L134.91 106.357L96.4039 89.7497L115.784 57.3443M115.784 57.3443L120.662 68.2747L139.958 68.6325L120.723 89.0227L162.796 87.2042L167.274 69.7387M115.784 57.3443L126.001 40.2617L162.607 74.6851L167.274 69.7387M167.274 69.7387L169.825 59.7879M167.274 69.7387L173.677 62.9511L169.825 59.7879M169.825 59.7879L171.345 53.861L173.71 32.8535L149.298 42.9301L169.825 59.7879ZM62.9295 58.2718L55.9437 51.7027L64.3512 38.8603M62.9295 58.2718L75.0401 39.168L64.3512 38.8603M62.9295 58.2718L61.6319 60.3186L18.2817 50.7723L13.3851 57.4267M64.3512 38.8603L87.2745 3.84527L63.7825 7.16464L61.7954 15.8231L47.5805 10.0791L40.2275 22.007M64.3512 38.8603L46.159 38.3366M40.2275 22.007L30.4399 37.8842L46.159 38.3366M40.2275 22.007L50.9074 27.3647L46.159 38.3366M40.2275 22.007L22.7735 13.2509M46.159 38.3366L43.203 45.167L10.7677 43.7064L13.3851 57.4267M13.3851 57.4267L2.81014 71.7977L17.0627 76.7052M13.3851 57.4267L17.0627 76.7052M17.0627 76.7052L42.5526 85.4819M17.0627 76.7052L21.6535 100.77L2.62422 84.328L1 92.6017L31.8918 130L49.6351 128.535L27.671 107.881L42.5526 85.4819M42.5526 85.4819L47.2693 87.1059L35.7563 102.779L51.1271 109.61L70.181 89.412L53.6474 68.7825L42.5526 85.4819Z" stroke="#8C55B2"/>
</svg>
